public/images/dev26.svg

<svg width="100" height="101" viewBox="0 0 100 101" fill="none" xmlns="http://www.w3.org/2000/svg">
<path d="M17.5514 77.8498V76.0012H15.8773V77.8398H15V73.4205H15.8739V75.2791H17.5481V73.4205H18.422V77.8498H17.5514ZM21.5694 77.8498H20.8997L20.8395 77.6158C20.5376 77.8011 20.1893 77.8973 19.835 77.8933C19.2222 77.8933 18.9611 77.4922 18.9611 76.9439C18.9611 76.3957 19.2591 76.0714 19.9321 76.0714H20.7357V75.7371C20.7357 75.3794 20.6319 75.2591 20.0995 75.2591C19.7879 75.2616 19.4773 75.294 19.172 75.356L19.0682 74.7443C19.4503 74.6409 19.8443 74.588 20.2401 74.5872C21.2881 74.5872 21.5795 74.9448 21.5795 75.7371L21.5694 77.8498ZM20.6921 76.6464H20.1263C19.8551 76.6464 19.7914 76.7166 19.7914 76.9606C19.7914 77.2047 19.8685 77.2949 20.1263 77.2949C20.3467 77.2918 20.5629 77.2344 20.7558 77.1278L20.6921 76.6464ZM23.3139 77.92C22.9231 77.9142 22.5352 77.8523 22.1621 77.7362L22.2759 77.1244C22.6031 77.2149 22.9409 77.2621 23.2804 77.2648C23.6487 77.2648 23.709 77.1879 23.709 76.9305C23.709 76.6731 23.709 76.633 23.123 76.5127C22.3094 76.3221 22.2491 76.1282 22.2491 75.5098C22.2491 74.8914 22.5471 74.5838 23.498 74.5838C23.8361 74.5844 24.173 74.6225 24.5025 74.6975L24.4255 75.3326C24.1369 75.2794 23.8449 75.247 23.5516 75.2357C23.1833 75.2357 23.123 75.3126 23.123 75.5131C23.123 75.7137 23.123 75.7906 23.5951 75.8976C24.5293 76.1316 24.6164 76.2553 24.6164 76.9005C24.6164 77.5456 24.3385 77.8866 23.334 77.8866L23.3139 77.92ZM27.141 77.8498V75.6168C27.141 75.4429 27.064 75.3627 26.8698 75.3627C26.5636 75.3954 26.2668 75.4873 25.9959 75.6335V77.8498H25.132V73.357L26.0059 73.4807V74.8813C26.3876 74.6959 26.8039 74.5922 27.2281 74.5771C27.7772 74.5771 27.9781 74.9515 27.9781 75.5198V77.8398L27.141 77.8498ZM28.6879 74.2127V73.4272H29.5618V74.2127H28.6879ZM28.6879 77.8565V74.6473H29.5618V77.8398L28.6879 77.8565ZM30.1913 74.6908C30.1913 73.8885 30.6802 73.4272 31.8153 73.4272C32.2326 73.4279 32.6483 73.4772 33.0541 73.5743L32.957 74.2896C32.5858 74.2067 32.2084 74.1541 31.8287 74.1325C31.236 74.1325 31.0418 74.3331 31.0418 74.8011V76.4726C31.0418 76.9339 31.2327 77.1411 31.8287 77.1411C32.2039 77.1333 32.5779 77.0953 32.947 77.0275L33.0441 77.7429C32.6383 77.8399 32.2225 77.8893 31.8052 77.89C30.6701 77.89 30.1813 77.4286 30.1813 76.6263L30.1913 74.6908ZM34.8991 77.9267C33.7539 77.9267 33.4492 77.325 33.4492 76.6698V75.8842C33.4492 75.2156 33.7539 74.6273 34.8991 74.6273C36.0442 74.6273 36.3489 75.229 36.3489 75.8842V76.6965C36.3489 77.325 36.0342 77.9267 34.889 77.9267H34.8991ZM34.8991 75.3092C34.4537 75.3092 34.2796 75.4998 34.2796 75.8575V76.73C34.2796 77.0877 34.4537 77.2782 34.8991 77.2782C35.3444 77.2782 35.5185 77.0877 35.5185 76.73V75.8508C35.5185 75.4597 35.3344 75.2658 34.889 75.2658L34.8991 75.3092ZM38.6994 75.3627C38.397 75.4945 38.1049 75.6487 37.8255 75.824V77.89H36.9516V74.6473H37.7117V74.9816C37.9839 74.8057 38.2776 74.6652 38.5856 74.5638L38.6994 75.3627ZM42.0477 76.75C42.0707 76.9009 42.0583 77.055 42.0115 77.2003C41.9647 77.3456 41.8848 77.4781 41.778 77.5873C41.6712 77.6965 41.5405 77.7794 41.3962 77.8296C41.2518 77.8798 41.0978 77.8959 40.9461 77.8766C40.6525 77.8711 40.3599 77.8386 40.0722 77.7796V79.0867L39.1983 79.2104V74.6473H39.868L39.945 74.9181C40.2536 74.6981 40.6239 74.5811 41.0031 74.5838C41.6727 74.5838 42.0343 74.9682 42.0343 75.6903L42.0477 76.75ZM40.0555 77.1077C40.2999 77.1607 40.5488 77.1898 40.7988 77.1946C41.0968 77.1946 41.2174 77.0542 41.2174 76.7667V75.687C41.2174 75.4262 41.1136 75.2758 40.8055 75.2758C40.5322 75.2847 40.2701 75.3861 40.0622 75.5633L40.0555 77.1077Z" fill="black"/>
<path d="M15 81.4167H22.1453C26.3809 81.4167 27.9446 83.1617 27.9446 86.3609V88.8547C27.9446 92.0372 26.1968 93.7654 21.9779 93.7654H18.4923V99.6958H15V81.4167ZM21.9879 84.4588H18.4923V90.6933H21.9879C23.9434 90.6933 24.5226 89.9779 24.5226 88.4703V86.6317C24.4858 85.1207 23.8563 84.4588 21.9879 84.4588Z" fill="black"/>
<path d="M39.6671 99.6958H36.9148L36.6703 98.8233C35.4839 99.5916 34.1 100 32.6858 100C30.2416 100 29.1935 98.3285 29.1935 96.0219C29.1935 93.3008 30.3721 92.2645 33.0977 92.2645H36.3121V90.8605C36.3121 89.3796 35.9002 88.8547 33.7539 88.8547C32.5059 88.8644 31.2619 88.9988 30.0407 89.2559L29.6288 86.7019C31.1213 86.2765 32.664 86.0517 34.216 86.0333C38.4248 86.0333 39.657 87.5142 39.657 90.8638L39.6671 99.6958ZM36.3188 94.648H33.831C32.7294 94.648 32.4247 94.9522 32.4247 95.9651C32.4247 96.978 32.7294 97.3023 33.764 97.3023C34.6563 97.2914 35.5311 97.0532 36.3054 96.6103L36.3188 94.648Z" fill="black"/>
<path d="M41.666 94.8385V91.1847C41.666 87.5911 43.2297 86.0467 47.4385 86.0467C48.5484 86.0546 49.6513 86.2224 50.7132 86.5448L50.3014 89.2926C49.3918 89.0675 48.4593 88.9475 47.5222 88.9349C45.6003 88.9349 45.0244 89.5099 45.0244 91.158V94.8653C45.0244 96.5133 45.6003 97.0883 47.5222 97.0883C48.4599 97.0841 49.3933 96.964 50.3014 96.7306L50.7132 99.4785C49.6529 99.8079 48.549 99.9758 47.4385 99.9766C43.2397 99.9733 41.666 98.4288 41.666 94.8385Z" fill="black"/>
<path d="M52.836 99.6958V80.8651L56.1844 80.3938V99.6925L52.836 99.6958ZM64.2203 86.3241L60.2894 92.9431L64.3844 99.6925H60.7012L56.6565 92.9431L60.4836 86.3241H64.2203Z" fill="black"/>
<path d="M71.1982 97.2254C72.5873 97.224 73.9685 97.0167 75.2966 96.6103L75.8222 99.1409C74.2441 99.7168 72.5771 100.012 70.8969 100.013C66.688 100.013 65.2382 98.0611 65.2382 94.8519V91.295C65.2382 88.4703 66.5039 86.0634 70.7931 86.0634C75.0823 86.0634 76.0332 88.5572 76.0332 91.4455V94.297H68.5731V94.9856C68.5731 96.6103 69.1557 97.2254 71.1982 97.2254ZM68.5731 91.5959H72.8355V90.9273C72.8355 89.6637 72.4505 88.7812 70.7998 88.7812C69.149 88.7812 68.5731 89.667 68.5731 90.9273V91.5959Z" fill="black"/>
<path d="M85 89.1255C83.7695 89.6841 82.584 90.3368 81.4541 91.0778V99.6924H78.1058V86.3208H80.9351L81.1528 87.8017C82.2367 87.0765 83.4107 86.4955 84.6451 86.0734L85 89.1255Z" fill="black"/>
<path d="M29.3342 8.25032L51.2489 20.8932V67.5069L29.3342 54.8706V8.25032Z" fill="#1DAEFF"/>
<path d="M62.0975 13.706L38.2775 0V9.51394L54.4734 18.854V47.3959L62.0975 51.7417C66.8153 54.4628 70.6759 52.8314 70.6759 48.1213V27.208C70.6759 22.4978 66.8153 16.4204 62.0975 13.706Z" fill="#1D94DD"/>
</svg>

<svg xmlns="http://www.w3.org/2000/svg" width="100" height="101" fill="none"><path fill="#000" d="M17.551 77.85V76h-1.674v1.839H15v-4.42h.874v1.86h1.674v-1.86h.874v4.43zm4.018 0h-.67l-.06-.234a1.9 1.9 0 0 1-1.004.277c-.613 0-.874-.4-.874-.95 0-.547.298-.872.971-.872h.804v-.334c0-.358-.104-.478-.637-.478a5 5 0 0 0-.927.097l-.104-.612a4.5 4.5 0 0 1 1.172-.157c1.048 0 1.34.358 1.34 1.15zm-.877-1.204h-.566c-.27 0-.335.07-.335.315 0 .244.078.334.335.334.22-.003.437-.06.63-.167zm2.622 1.274a4 4 0 0 1-1.152-.184l.114-.612c.327.09.665.138 1.004.14.369 0 .429-.076.429-.334 0-.257 0-.297-.586-.417-.814-.19-.874-.385-.874-1.003 0-.619.298-.926 1.249-.926q.509 0 1.005.114l-.078.635a6 6 0 0 0-.873-.097c-.369 0-.429.077-.429.277s0 .278.472.385c.934.234 1.021.357 1.021 1.002 0 .646-.277.987-1.282.987zm3.827-.07v-2.233c0-.174-.077-.254-.271-.254a2.4 2.4 0 0 0-.874.27v2.217h-.864v-4.493l.874.124v1.4c.382-.185.798-.289 1.222-.304.55 0 .75.374.75.943v2.32zm1.547-3.637v-.786h.874v.786zm0 3.644v-3.21h.874v3.193zm1.503-3.166c0-.803.49-1.264 1.624-1.264q.628 0 1.24.147l-.098.716a7 7 0 0 0-1.128-.158c-.593 0-.787.201-.787.67v1.67c0 .462.19.67.787.67q.564-.013 1.118-.114l.097.715a5.4 5.4 0 0 1-1.239.147c-1.135 0-1.624-.461-1.624-1.264zm4.708 3.236c-1.145 0-1.45-.602-1.45-1.257v-.786c0-.668.305-1.257 1.45-1.257s1.45.602 1.45 1.257v.813c0 .628-.315 1.23-1.46 1.23zm0-2.618c-.445 0-.62.19-.62.549v.872c0 .358.175.548.62.548s.62-.19.62-.548v-.88c0-.39-.185-.584-.63-.584zm3.8.054a7 7 0 0 0-.873.461v2.066h-.874v-3.243h.76v.335a3.8 3.8 0 0 1 .874-.418zm3.349 1.387a.985.985 0 0 1-1.102 1.127 5 5 0 0 1-.874-.097v1.307l-.874.123v-4.563h.67l.077.271a1.8 1.8 0 0 1 1.058-.334c.67 0 1.031.384 1.031 1.106zm-1.992.358q.367.08.743.087c.298 0 .418-.14.418-.428v-1.08c0-.26-.103-.411-.411-.411-.274.009-.536.11-.744.287zM15 81.417h7.145c4.236 0 5.8 1.745 5.8 4.944v2.494c0 3.182-1.748 4.91-5.967 4.91h-3.486v5.93H15zm6.988 3.042h-3.496v6.234h3.496c1.955 0 2.535-.715 2.535-2.223v-1.838c-.037-1.511-.667-2.173-2.535-2.173M39.667 99.696h-2.752l-.245-.873A7.33 7.33 0 0 1 32.686 100c-2.444 0-3.492-1.671-3.492-3.978 0-2.721 1.178-3.758 3.904-3.758h3.214v-1.403c0-1.481-.412-2.006-2.558-2.006-1.248.01-2.492.144-3.713.4l-.412-2.553a17.5 17.5 0 0 1 4.587-.669c4.209 0 5.441 1.481 5.441 4.83zm-3.348-5.048H33.83c-1.102 0-1.406.304-1.406 1.317s.304 1.337 1.339 1.337a5.25 5.25 0 0 0 2.541-.692zM41.666 94.839v-3.654c0-3.594 1.564-5.138 5.773-5.138 1.11.008 2.212.175 3.274.498l-.412 2.748a12.3 12.3 0 0 0-2.779-.358c-1.922 0-2.498.575-2.498 2.223v3.707c0 1.648.576 2.223 2.498 2.223a11.4 11.4 0 0 0 2.78-.357l.411 2.748c-1.06.329-2.164.497-3.275.498-4.198-.004-5.772-1.548-5.772-5.139M52.836 99.696v-18.83l3.348-.472v19.298zM64.22 86.324l-3.93 6.62 4.094 6.748h-3.683l-4.044-6.749 3.827-6.619zM71.198 97.225c1.39-.001 2.77-.208 4.099-.615l.525 2.53a14.4 14.4 0 0 1-4.925.873c-4.209 0-5.659-1.952-5.659-5.161v-3.557c0-2.825 1.266-5.232 5.555-5.232 4.29 0 5.24 2.494 5.24 5.382v2.852h-7.46v.689c0 1.624.583 2.24 2.625 2.24m-2.625-5.63h4.263v-.668c0-1.263-.385-2.146-2.036-2.146s-2.227.886-2.227 2.146zM85 89.126a26 26 0 0 0-3.546 1.952v8.614h-3.348V86.321h2.83l.217 1.48a15 15 0 0 1 3.492-1.728z"/><path fill="#1DAEFF" d="M29.334 8.25 51.25 20.893v46.614L29.334 54.87z"/><path fill="#1D94DD" d="M62.098 13.706 38.277 0v9.514l16.195 9.34v28.542l7.624 4.346c4.718 2.72 8.579 1.09 8.579-3.62V27.207c0-4.71-3.86-10.788-8.579-13.502"/></svg>
